static/img/common/ico-note.svg

<svg width="16" height="16" viewBox="0 0 16 16" fill="none" xmlns="http://www.w3.org/2000/svg">
<g clip-path="url(#clip0_630_29)">
<path d="M12.3306 15.0593C12.1894 15.0593 12.0481 14.9907 11.9617 14.8615C11.8205 14.6515 11.8675 14.3649 12.0716 14.2155C13.9671 12.8468 15.1013 10.6101 15.1013 8.23215C15.1013 4.20288 11.9146 0.928589 8.00196 0.928589C4.08928 0.928589 0.902624 4.20288 0.902624 8.23215C0.902624 10.6101 2.03287 12.8468 3.92838 14.2155C4.13245 14.3608 4.17954 14.6515 4.03826 14.8615C3.89306 15.0714 3.61442 15.1239 3.41035 14.9745C1.27545 13.4322 0 10.9129 0 8.23215C0 3.69417 3.59088 0 8.00196 0C12.413 0 16.0039 3.69417 16.0039 8.23215C16.0039 10.9129 14.7285 13.4322 12.5936 14.9745C12.5151 15.031 12.4248 15.0593 12.3346 15.0593H12.3306Z" fill="#717071"/>
<path d="M5.85533 16V15.136H5.98484C6.236 15.136 6.43615 15.0593 6.58136 14.9139C6.72656 14.7646 6.7972 14.4739 6.7972 14.0459V9.85111C6.7972 9.4716 6.71871 9.21321 6.56566 9.07594C6.4126 8.93867 6.21638 8.866 5.98484 8.866H5.7533V8.00201H9.29315V14.0903C9.29315 14.4981 9.36772 14.7726 9.51685 14.918C9.66598 15.0633 9.8622 15.136 10.1055 15.136H10.2507V16H5.85533ZM9.11263 5.9147C9.11263 6.6172 8.55928 7.18243 7.88035 7.18243C7.20142 7.18243 6.64807 6.61316 6.64807 5.9147C6.64807 5.21624 7.20142 4.64697 7.88035 4.64697C8.55928 4.64697 9.11263 5.21624 9.11263 5.9147Z" fill="#717071"/>
</g>
<defs>
<clipPath id="clip0_630_29">
<rect width="16" height="16" fill="white"/>
</clipPath>
</defs>
</svg>

<svg xmlns="http://www.w3.org/2000/svg" width="16" height="16" fill="none" viewBox="0 0 16 16"><g fill="#717071" clip-path="url(#a)"><path d="M12.33 15.06a.44.44 0 0 1-.368-.199.474.474 0 0 1 .11-.646c1.895-1.368 3.03-3.605 3.03-5.983 0-4.03-3.187-7.303-7.1-7.303s-7.1 3.274-7.1 7.303c0 2.378 1.13 4.615 3.026 5.984a.473.473 0 0 1 .11.646.44.44 0 0 1-.628.113C1.275 13.432 0 10.913 0 8.232 0 3.694 3.59 0 8.002 0c4.411 0 8.002 3.694 8.002 8.232 0 2.68-1.276 5.2-3.41 6.743a.44.44 0 0 1-.26.084z"/><path d="M5.855 16v-.864h.13c.251 0 .451-.077.596-.222q.217-.225.216-.868V9.85q0-.57-.231-.775a.85.85 0 0 0-.581-.21h-.232v-.864h3.54v6.088q0 .611.224.828.223.218.588.218h.146V16zM9.113 5.915c0 .702-.554 1.267-1.233 1.267s-1.232-.569-1.232-1.267c0-.699.553-1.268 1.232-1.268.68 0 1.233.57 1.233 1.268"/></g><defs><clipPath id="a"><path fill="#fff" d="M0 0h16v16H0z"/></clipPath></defs></svg>
